src/assets/icons/months,simple,july-7.svg

<svg width="48" height="48" viewBox="0 0 48 48" fill="none" xmlns="http://www.w3.org/2000/svg">
<rect opacity="0.2" x="5" y="5" width="38" height="38" rx="4" fill="black"/>
<path d="M5 13C5 9.22876 5 7.34315 6.17157 6.17157C7.34315 5 9.22876 5 13 5H35C38.7712 5 40.6569 5 41.8284 6.17157C43 7.34315 43 9.22876 43 13V15H5V13Z" fill="black"/>
<path d="M14.733 23.3636V31.4773C14.7273 32.5966 14.2273 33.1875 13.3182 33.1875C12.4602 33.1875 11.9034 32.6534 11.8864 31.7273H9.4375C9.42614 34.0511 11.0852 35.1591 13.1932 35.1591C15.5511 35.1591 17.1591 33.733 17.1648 31.4773V23.3636H14.733ZM26.3864 23.3636V30.7102C26.3864 32.0398 25.4545 33 24.0227 33C22.5966 33 21.6591 32.0398 21.6591 30.7102V23.3636H19.1989V30.9205C19.1989 33.4659 21.1193 35.1648 24.0227 35.1648C26.9148 35.1648 28.8466 33.4659 28.8466 30.9205V23.3636H26.3864ZM30.8707 35H38.3196V32.9716H33.331V23.3636H30.8707V35Z" fill="black"/>
</svg>

<svg xmlns="http://www.w3.org/2000/svg" width="48" height="48" fill="none" viewBox="0 0 48 48">
  <rect width="38" height="38" x="5" y="5" fill="#000" opacity=".2" rx="4"/>
  <path fill="#000" d="M5 13c0-3.771 0-5.657 1.172-6.828C7.343 5 9.229 5 13 5h22c3.771 0 5.657 0 6.828 1.172C43 7.343 43 9.229 43 13v2H5v-2zM14.733 23.364v8.113c-.006 1.12-.506 1.71-1.415 1.71-.858 0-1.415-.534-1.432-1.46H9.438c-.012 2.324 1.647 3.432 3.755 3.432 2.358 0 3.966-1.426 3.972-3.682v-8.113h-2.432zm11.653 0v7.346c0 1.33-.931 2.29-2.363 2.29-1.426 0-2.364-.96-2.364-2.29v-7.346H19.2v7.556c0 2.546 1.92 4.245 4.824 4.245 2.892 0 4.824-1.7 4.824-4.244v-7.557h-2.46zM30.871 35h7.449v-2.028H33.33v-9.608h-2.46V35z"/>
</svg>
